X:1
T:The Cockold Comes Out Of The Amery.
M:4/4
L:1/16
K:Bm
BcdB d3e|f3e f2a2|A2A2 c3d|ecBA cdec|
BcdB d3e|f3e fga2|e2dc aecA|B4f4|
a3f d2a2|f2d2 fgaf|edcB A2e2|c2A2 cdec|
agfe defg|a2d2 fgaf|edcA aedc|B4f4|
BcdB defd|fgaf defd|ABcA cdec|ecBA cdec|
BcdB defd|fgaf defd|edcA aecA|B4f4|
agfg agfg|agfe defd|edcd edcd|edcB ABcA|
agfg agfg|agfe defd|edcA aecA|B4f4|
fdBd adBd|fdBd adBd|ecAc acAc|ecAc acAc|
fdBd adBd|fdBd adBd|ecAc acAc|B4f4|
dfaf dfaf|dfaf dfaf|ceae ceae|ceae ceae|
dfaf dfaf|dfaf dfaf|ceae aecA|B4f4|
B2fe d2fe|B2fe d2fe|A2fe c2fe|A2fe c2fe|
B2fe d2fe|B2fe d2fe|cdef a2c2|B4f4|
a2d2 f2a2|d2fg a2d2|a2c2 e2a2|A2cd e2fg|
a2d2 f2a2|d2fg a2d2|a2c2 aecA|B4f4|
a2d2 f2a2|d2fg a2d2|a2c2 e2a2|A2cd e2fg|
a2d2 f2a2|d2fg a2d2|e2dc aecA|B4f4|
gfeg f2B2|gfeg fdB2|fedf eaga|faea daca|
gfeg f2B2|gfeg fdB2|fedf aBcA|B4f4|
gfeg f2B2|gfeg fdB2|fedf eaga|faea daca|
gfeg f2B2|gfeg fdB2|fedf aecA|B4f4|
d3e gfed|a2de gfed|A3B dcBA|e2AB dcBA|
dcde gfed|aAde gfed|fedc aecA|B4f4|
Bcde gfed|fedc edcB|dcBA agfe|gfed fedc|
Bcde gfed|fedc edcB|dcBA aecA|B4f4|
agfe defg|agfe gfed|fedc edcB|dcBA cdec|
agfe defg|agfe gfed|fedc a2c2|B4f4|
d2cB c2BA|B2f2 d2B2|c2BA d2cB|e2a2 c2A2|
d2cB c2BA|B2f2 d2B2|c2BA a2c2|B4f4|
eAdg Adf2-|fAde gfed|eAcg Ace2-|eaec dcBA|
eAdg Adf2-|fAde gfed|fedc a2c2|B4f4|
Bcde fdBa|dBgd BfdB| ecAf cAgc|AacA fedc|
Bcde fdBa|dBgd BfdB|ecAc a2c2|B4f4|
agfe d2ag|fed2 agfe|c2ag fec2|agfe c2ag|
fed2 agfe|d2ag fed2|agfe a2c2|B4f4|
Bfda dgf2|def2 fef2|Aecg cfe2|cde2 ede2|
Bfda dgf2|def2 fef2|e2dc a2c2|B4f4|
aAdf AdaA|dfAd aAdf|aAce AcaA|ceAc aAce|
aAdf AdaA|dfAd aAdf|e2dc aecA|B4f4|
